X:79
T:Morris simple chords 26
M:3/4
L:1/8
K:Em
e2 [d2G,2B,2D2] B2 | A2>E2 [E2C,2E,2G,2] | E2 D2>D2 | [G2G,2B,2D2] B2 A2 | G2 [A4D,4F,4A,4] |
e4 [d2G,2B,2D2] | B2 A2>G2 | [A2C,2E,2G,2] E2 D3 |D [G2G,2B,2D2] B2 |
A2 G2 [d4G,4B,4D4] | G2 GA | [B2G,2B,2D2] d2 g3 |e [d2G,2B,2D2] B2 |
A2 GA [B2G,2B,2D2] | d2 g2 d2 | [e4C,4E,4G,4] g3 |e [d2G,2B,2D2] B2 |
A2>E2 [E2A,2C2E2] | E2 D2>D2 | [G2G,2B,2D2] B2 A2 | G2 [A4G,4B,4D4] |
e4 |


